X:7601
T:Full Rigged Ship, The
T:Da Full Rigged Ship
R:Jig
C:Trad
O:Scotland, Shetland
Z:Paul Hardy's Annex Tunebook 2015 (see www.paulhardy.net). Creative Commons cc by-nc-sa licenced.
M:6/8
L:1/8
Q:3/8=100
K:ADor
"Am"e2a aea|aea aba|"Em"e2f g2g|gag "D"f2d|
"Am"e2a aea|aea aba|"Em"g2e "G"edB|"Am"A3 E3:|
[K:Am]
|:"Am"efe "Em"edB|"Am"A2B "D7"c3|"G"BGG BGG|"Bm"Bcd "Em"E3|
"Am"efe "Em"edB|"Am"A2B "D7"c2d|"Am"efe "G"dBG|"Am"A3 A3:|
[K:Am]
|:"C"EGE EGE|"Am"EGE c3|"C"EGE E2D|"Am"E2F GEC|
"C"EGE EGE|"Am"EGE c2d|efe "G"dBG|"Am"A3 A3:|

